X: 18071
T: Humours Of Ballycastle, The
R: jig
M: 6/8
K: Amajor
ABA cBA|faf ecB|ABA cBA|FGA BGE|
ABA cBA|faf ecA|BAB cec|1 ABA A2 E:|2 ABA A2 g||
agf efg|aba gfe|cff f2 e|cff f2 g|
agf ece|faf ecA|BAB cec|1 ABA A2 g:|2 ABA A3||

